packages/kaspersky-hexa-ui-icons/src/iconsSVGs/16/IngressK8S.svg

<svg width="16" height="16" viewBox="0 0 16 16" fill="none" xmlns="http://www.w3.org/2000/svg">
<path d="M2.0001 12.6501C1.64111 12.6501 1.3501 12.3591 1.3501 12.0001C1.3501 11.6411 1.64111 11.3501 2.0001 11.3501H4.09838L5.77338 8.0001L4.09838 4.6501H2.0001C1.64111 4.6501 1.3501 4.35908 1.3501 4.0001C1.3501 3.64111 1.64111 3.3501 2.0001 3.3501H4.5001C4.7463 3.3501 4.97137 3.4892 5.08148 3.70941L6.5001 6.54665L7.91872 3.70941C8.02882 3.4892 8.2539 3.3501 8.5001 3.3501H11.9309L11.0405 2.45972C10.7866 2.20588 10.7866 1.79432 11.0405 1.54048C11.2943 1.28664 11.7059 1.28664 11.9597 1.54048L13.9597 3.54048C14.2136 3.79432 14.2136 4.20588 13.9597 4.45972L11.9597 6.45972C11.7059 6.71356 11.2943 6.71356 11.0405 6.45972C10.7866 6.20588 10.7866 5.79432 11.0405 5.54048L11.9309 4.6501H8.90182L7.22682 8.0001L8.90182 11.3501H11.9309L11.0405 10.4597C10.7866 10.2059 10.7866 9.79432 11.0405 9.54048C11.2943 9.28664 11.7059 9.28664 11.9597 9.54048L13.9597 11.5405C14.2136 11.7943 14.2136 12.2059 13.9597 12.4597L11.9597 14.4597C11.7059 14.7136 11.2943 14.7136 11.0405 14.4597C10.7866 14.2059 10.7866 13.7943 11.0405 13.5405L11.9309 12.6501H8.5001C8.2539 12.6501 8.02882 12.511 7.91872 12.2908L6.5001 9.45354L5.08148 12.2908C4.97137 12.511 4.7463 12.6501 4.5001 12.6501H2.0001Z" fill="black"/>
</svg>

<svg xmlns="http://www.w3.org/2000/svg" width="16" height="16" fill="none" viewBox="0 0 16 16"><path fill="#000" d="M2 12.65a.65.65 0 1 1 0-1.3h2.0983L5.7733 8l-1.675-3.35H2a.65.65 0 0 1 0-1.3h2.5a.65.65 0 0 1 .5813.3593L6.5 6.5465l1.4186-2.8372A.65.65 0 0 1 8.5 3.35h3.4307l-.8903-.8904a.65.65 0 1 1 .9192-.9192l2 2a.65.65 0 0 1 0 .9192l-2 2a.65.65 0 0 1-.9192 0 .65.65 0 0 1 0-.9192l.8903-.8904h-3.029L7.2267 8l1.675 3.35h3.029l-.8903-.8904a.65.65 0 0 1 0-.9192.65.65 0 0 1 .9192 0l2 2a.65.65 0 0 1 0 .9192l-2 2a.65.65 0 0 1-.9192-.9192l.8903-.8904H8.5a.65.65 0 0 1-.5814-.3593L6.5 9.4534l-1.4187 2.8373A.65.65 0 0 1 4.5 12.65z"/></svg>
